app/img/sentinel_lines.svg

<svg width="605" height="605" viewBox="0 0 605 605" fill="none" xmlns="http://www.w3.org/2000/svg">
<path d="M524.872 302.204H605V303.204H524.872V302.204Z" fill="#00ACAC"/>
<path d="M424.711 302.204H518.862V303.204H424.711V302.204Z" fill="#00ACAC"/>
<path d="M523.122 330.649L602.604 340.786L602.477 341.778L522.995 331.64L523.122 330.649Z" fill="#00ACAC"/>
<path d="M423.77 317.976L517.161 329.888L517.034 330.879L423.643 318.967L423.77 317.976Z" fill="#00ACAC"/>
<path d="M423.77 317.976L517.161 329.888L517.034 330.879L423.643 318.967L423.77 317.976Z" fill="#005050"/>
<path d="M517.649 359.032L595.145 379.355L594.891 380.321L517.395 359.998L517.649 359.032Z" fill="#00ACAC"/>
<path d="M420.78 333.628L511.837 357.507L511.583 358.474L420.525 334.594L420.78 333.628Z" fill="#00ACAC"/>
<path d="M513.576 372.776L589.603 398.026L589.287 398.974L513.26 373.724L513.576 372.776Z" fill="#00ACAC"/>
<path d="M418.543 341.214L507.874 370.882L507.558 371.83L418.227 342.162L418.543 341.214Z" fill="#00ACAC"/>
<path d="M513.576 372.776L589.603 398.026L589.287 398.974L513.26 373.724L513.576 372.776Z" fill="#005050"/>
<path d="M495.728 412.804L565.311 452.446L564.815 453.314L495.232 413.672L495.728 412.804Z" fill="#00ACAC"/>
<path d="M408.75 363.253L490.51 409.831L490.013 410.699L408.253 364.12L408.75 363.253Z" fill="#00ACAC"/>
<path d="M495.728 412.804L565.311 452.446L564.815 453.314L495.232 413.672L495.728 412.804Z" fill="#005050"/>
<path d="M479.571 437.251L543.321 485.681L542.715 486.476L478.964 438.046L479.571 437.251Z" fill="#00ACAC"/>
<path d="M399.883 376.714L474.79 433.619L474.183 434.414L399.276 377.509L399.883 376.714Z" fill="#00ACAC"/>
<path d="M470.707 448.182L531.332 500.454L530.677 501.21L470.053 448.938L470.707 448.182Z" fill="#00ACAC"/>
<path d="M394.926 382.842L466.161 444.262L465.506 445.018L394.272 383.598L394.926 382.842Z" fill="#00ACAC"/>
<path d="M460.811 458.905L517.881 515.02L517.177 515.732L460.108 459.617L460.811 458.905Z" fill="#00ACAC"/>
<path d="M389.474 388.761L456.531 454.696L455.828 455.408L388.771 389.473L389.474 388.761Z" fill="#00ACAC"/>
<path d="M460.811 458.905L517.881 515.02L517.177 515.732L460.108 459.617L460.811 458.905Z" fill="#005050"/>
<path d="M450.244 468.954L503.515 528.671L502.767 529.335L449.496 469.619L450.244 468.954Z" fill="#00ACAC"/>
<path d="M383.655 394.309L446.249 464.476L445.5 465.14L382.907 394.973L383.655 394.309Z" fill="#00ACAC"/>
<path d="M439.041 478.298L488.278 541.366L487.488 541.98L438.25 478.912L439.041 478.298Z" fill="#00ACAC"/>
<path d="M377.494 399.463L435.348 473.568L434.558 474.182L376.703 400.077L377.494 399.463Z" fill="#00ACAC"/>
<path d="M377.494 399.463L435.348 473.568L434.558 474.182L376.703 400.077L377.494 399.463Z" fill="#005050"/>
<path d="M415.243 494.513L455.998 563.341L455.135 563.85L414.38 495.021L415.243 494.513Z" fill="#00ACAC"/>
<path d="M364.299 408.477L412.186 489.351L411.324 489.859L363.436 408.985L364.299 408.477Z" fill="#00ACAC"/>
<path d="M415.243 494.513L455.998 563.341L455.135 563.85L414.38 495.021L415.243 494.513Z" fill="#005050"/>
<path d="M375.595 512.962L402.047 588.422L401.101 588.752L374.65 513.292L375.595 512.962Z" fill="#00ACAC"/>
<path d="M342.531 418.637L373.612 507.303L372.666 507.633L341.586 418.967L342.531 418.637Z" fill="#00ACAC"/>
<path d="M375.595 512.962L402.047 588.422L401.101 588.752L374.65 513.292L375.595 512.962Z" fill="#005050"/>
<path d="M361.827 517.295L383.371 594.292L382.406 594.561L360.862 517.563L361.827 517.295Z" fill="#00ACAC"/>
<path d="M334.896 421.048L360.211 511.52L359.246 511.789L333.931 421.316L334.896 421.048Z" fill="#00ACAC"/>
<path d="M361.827 517.295L383.371 594.292L382.406 594.561L360.862 517.563L361.827 517.295Z" fill="#005050"/>
<path d="M318.975 524.864L325.15 604.568L324.151 604.645L317.976 524.941L318.975 524.864Z" fill="#00ACAC"/>
<path d="M311.255 425.235L318.511 518.886L317.513 518.963L310.257 425.312L311.255 425.235Z" fill="#00ACAC"/>
<path d="M311.255 425.235L318.511 518.886L317.513 518.963L310.257 425.312L311.255 425.235Z" fill="#005050"/>
<path d="M288.962 525.192L284.327 605L283.327 604.942L287.962 525.135L288.962 525.192Z" fill="#00ACAC"/>
<path d="M294.756 425.433L289.31 519.207L288.31 519.149L293.756 425.375L294.756 425.433Z" fill="#00ACAC"/>
<path d="M294.756 425.433L289.31 519.207L288.31 519.149L293.756 425.375L294.756 425.433Z" fill="#005050"/>
<path d="M274.839 523.957L265.288 603.329L264.294 603.21L273.844 523.838L274.839 523.957Z" fill="#00ACAC"/>
<path d="M286.777 424.743L275.555 518.004L274.561 517.885L285.783 424.624L286.777 424.743Z" fill="#00ACAC"/>
<path d="M260.471 521.768L245.759 600.35L244.775 600.167L259.486 521.585L260.471 521.768Z" fill="#00ACAC"/>
<path d="M278.861 423.54L261.574 515.874L260.59 515.691L277.876 423.356L278.861 423.54Z" fill="#00ACAC"/>
<path d="M260.471 521.768L245.759 600.35L244.775 600.167L259.486 521.585L260.471 521.768Z" fill="#005050"/>
<path d="M192.377 497.153L153.157 566.864L152.284 566.375L191.504 496.664L192.377 497.153Z" fill="#00ACAC"/>
<path d="M241.402 410.015L195.319 491.925L194.445 491.436L240.529 409.526L241.402 410.015Z" fill="#00ACAC"/>
<path d="M192.377 497.153L153.157 566.864L152.284 566.375L191.504 496.664L192.377 497.153Z" fill="#005050"/>
<path d="M167.855 481.249L119.779 545.202L118.977 544.603L167.054 480.65L167.855 481.249Z" fill="#00ACAC"/>
<path d="M227.951 401.307L171.461 476.453L170.66 475.853L227.15 400.708L227.951 401.307Z" fill="#00ACAC"/>
<path d="M167.855 481.249L119.779 545.202L118.977 544.603L167.054 480.65L167.855 481.249Z" fill="#005050"/>
<path d="M156.456 472.155L104.282 532.828L103.522 532.178L155.696 471.505L156.456 472.155Z" fill="#00ACAC"/>
<path d="M221.673 396.314L160.369 467.605L159.609 466.954L220.913 395.664L221.673 396.314Z" fill="#00ACAC"/>
<path d="M117.758 429.403L51.7748 474.759L51.2066 473.937L117.19 428.581L117.758 429.403Z" fill="#00ACAC"/>
<path d="M200.237 372.708L122.707 426.002L122.138 425.179L199.669 371.886L200.237 372.708Z" fill="#00ACAC"/>
<path d="M117.758 429.403L51.7748 474.759L51.2066 473.937L117.19 428.581L117.758 429.403Z" fill="#005050"/>
<path d="M110.109 417.593L41.4211 458.759L40.9054 457.902L109.593 416.737L110.109 417.593Z" fill="#00ACAC"/>
<path d="M195.969 366.137L115.261 414.506L114.745 413.649L195.453 365.28L195.969 366.137Z" fill="#00ACAC"/>
<path d="M110.109 417.593L41.4211 458.759L40.9054 457.902L109.593 416.737L110.109 417.593Z" fill="#005050"/>
<path d="M83.2263 350.042L4.88132 366.814L4.67117 365.837L83.0161 349.065L83.2263 350.042Z" fill="#00ACAC"/>
<path d="M181.157 329.076L89.1021 348.784L88.892 347.807L180.947 328.099L181.157 329.076Z" fill="#00ACAC"/>
<path d="M83.2263 350.042L4.88132 366.814L4.67117 365.837L83.0161 349.065L83.2263 350.042Z" fill="#005050"/>
<path d="M80.6186 335.824L1.34671 347.482L1.20065 346.493L80.4726 334.835L80.6186 335.824Z" fill="#00ACAC"/>
<path d="M179.708 321.252L86.564 334.95L86.4179 333.961L179.562 320.263L179.708 321.252Z" fill="#00ACAC"/>
<path d="M79.5917 277.367L0 268.129L0.115375 267.136L79.7071 276.374L79.5917 277.367Z" fill="#00ACAC"/>
<path d="M179.081 288.914L85.5611 278.059L85.6765 277.067L179.197 287.921L179.081 288.914Z" fill="#00ACAC"/>
<path d="M84.7217 248.945L6.99878 229.505L7.24236 228.535L84.9653 247.976L84.7217 248.945Z" fill="#00ACAC"/>
<path d="M181.875 273.247L90.551 250.404L90.7945 249.434L182.119 272.277L181.875 273.247Z" fill="#00ACAC"/>
<path d="M88.5983 235.251L12.2903 210.861L12.5959 209.909L88.9039 234.299L88.5983 235.251Z" fill="#00ACAC"/>
<path d="M183.983 265.738L94.3214 237.08L94.627 236.128L184.289 264.787L183.983 265.738Z" fill="#00ACAC"/>
<path d="M93.6612 221.033L19.1808 191.552L19.5502 190.623L94.0306 220.105L93.6612 221.033Z" fill="#00ACAC"/>
<path d="M186.762 257.886L99.2472 223.245L99.6166 222.316L187.131 256.957L186.762 257.886Z" fill="#00ACAC"/>
<path d="M105.986 194.935L35.9683 156.064L36.4553 155.191L106.473 194.062L105.986 194.935Z" fill="#00ACAC"/>
<path d="M193.509 243.524L111.238 197.85L111.725 196.977L193.996 242.651L193.509 243.524Z" fill="#00ACAC"/>
<path d="M193.509 243.524L111.238 197.85L111.725 196.977L193.996 242.651L193.509 243.524Z" fill="#005050"/>
<path d="M113.604 182.214L46.317 138.807L46.8609 137.968L114.148 181.375L113.604 182.214Z" fill="#00ACAC"/>
<path d="M197.712 236.474L118.65 185.47L119.194 184.631L198.256 235.635L197.712 236.474Z" fill="#00ACAC"/>
<path d="M197.712 236.474L118.65 185.47L119.194 184.631L198.256 235.635L197.712 236.474Z" fill="#005050"/>
<path d="M150.845 138.199L96.9247 79.066L97.6656 78.3936L151.586 137.527L150.845 138.199Z" fill="#00ACAC"/>
<path d="M218.246 212.116L154.889 142.634L155.63 141.962L218.987 211.444L218.246 212.116Z" fill="#00ACAC"/>
<path d="M218.246 212.116L154.889 142.634L155.63 141.962L218.987 211.444L218.246 212.116Z" fill="#005050"/>
<path d="M161.141 129.365L110.987 67.02L111.768 66.3945L161.922 128.74L161.141 129.365Z" fill="#00ACAC"/>
<path d="M223.833 207.297L164.902 134.041L165.683 133.416L224.614 206.672L223.833 207.297Z" fill="#00ACAC"/>
<path d="M210.813 99.0319L178.501 25.8784L179.418 25.4755L211.73 98.6289L210.813 99.0319Z" fill="#00ACAC"/>
<path d="M251.203 190.474L213.236 104.518L214.153 104.115L252.12 190.071L251.203 190.474Z" fill="#00ACAC"/>
<path d="M224.905 93.3483L197.602 18.1907L198.544 17.8502L225.847 93.0078L224.905 93.3483Z" fill="#00ACAC"/>
<path d="M259.033 187.295L226.953 98.9851L227.894 98.6446L259.975 186.955L259.033 187.295Z" fill="#00ACAC"/>
<path d="M224.905 93.3483L197.602 18.1907L198.544 17.8502L225.847 93.0078L224.905 93.3483Z" fill="#005050"/>
<path d="M252.072 85.3657L234.664 7.33383L235.641 7.11673L253.05 85.1486L252.072 85.3657Z" fill="#00ACAC"/>
<path d="M273.834 182.905L253.378 91.2181L254.356 91.001L274.811 182.688L273.834 182.905Z" fill="#00ACAC"/>
<path d="M273.834 182.905L253.378 91.218L254.356 91.0009L274.811 182.688L273.834 182.905Z" fill="#005050"/>
<path d="M266.245 82.6423L253.952 3.64725L254.942 3.49395L267.235 82.489L266.245 82.6423Z" fill="#00ACAC"/>
<path d="M281.611 181.386L267.167 88.5669L268.157 88.4136L282.601 181.233L281.611 181.386Z" fill="#00ACAC"/>
<path d="M295.615 79.9431L293.761 0.0231628L294.762 5.89841e-06L296.616 79.92L295.615 79.9431Z" fill="#00ACAC"/>
<path d="M297.933 179.843L295.754 85.9371L296.755 85.914L298.934 179.82L297.933 179.843Z" fill="#00ACAC"/>
<path d="M310.147 80.0297L313.545 0.160217L314.545 0.202655L311.147 80.0721L310.147 80.0297Z" fill="#00ACAC"/>
<path d="M305.899 179.866L309.892 86.0199L310.892 86.0623L306.9 179.909L305.899 179.866Z" fill="#00ACAC"/>
<path d="M310.147 80.0297L313.545 0.160217L314.545 0.202655L311.147 80.0721L310.147 80.0297Z" fill="#005050"/>
<path d="M324.911 81.0814L333.543 1.60532L334.539 1.71297L325.907 81.1891L324.911 81.0814Z" fill="#00ACAC"/>
<path d="M314.12 180.427L324.263 87.0422L325.259 87.1498L315.116 180.534L314.12 180.427Z" fill="#00ACAC"/>
<path d="M324.911 81.0814L333.543 1.60532L334.539 1.71297L325.907 81.1891L324.911 81.0814Z" fill="#005050"/>
<path d="M339.358 83.0673L353.165 4.32156L354.151 4.49375L340.345 83.2394L339.358 83.0673Z" fill="#00ACAC"/>
<path d="M322.099 181.499L338.322 88.9732L339.309 89.1454L323.086 181.672L322.099 181.499Z" fill="#00ACAC"/>
<path d="M407.921 106.751L446.365 36.611L447.243 37.0905L408.799 107.23L407.921 106.751Z" fill="#00ACAC"/>
<path d="M359.866 194.425L405.037 112.011L405.916 112.491L360.744 194.905L359.866 194.425Z" fill="#00ACAC"/>
<path d="M407.921 106.751L446.365 36.611L447.243 37.0905L408.799 107.23L407.921 106.751Z" fill="#005050"/>
<path d="M420.793 114.283L463.808 46.837L464.653 47.3735L421.638 114.82L420.793 114.283Z" fill="#00ACAC"/>
<path d="M367.025 198.591L417.567 119.342L418.412 119.878L367.87 199.128L367.025 198.591Z" fill="#00ACAC"/>
<path d="M420.793 114.283L463.808 46.837L464.653 47.3735L421.638 114.82L420.793 114.283Z" fill="#005050"/>
<path d="M454.859 140.681L510.06 82.7343L510.786 83.4226L455.585 141.369L454.859 140.681Z" fill="#00ACAC"/>
<path d="M385.859 213.114L450.719 145.027L451.445 145.715L386.585 213.802L385.859 213.114Z" fill="#00ACAC"/>
<path d="M491.431 185.386L559.66 143.467L560.185 144.318L491.957 186.236L491.431 185.386Z" fill="#00ACAC"/>
<path d="M406.145 237.784L486.314 188.529L486.839 189.38L406.671 238.635L406.145 237.784Z" fill="#00ACAC"/>
<path d="M498.852 198.27L569.717 160.957L570.184 161.841L499.32 199.154L498.852 198.27Z" fill="#00ACAC"/>
<path d="M410.272 244.912L493.537 201.069L494.005 201.952L410.739 245.795L410.272 244.912Z" fill="#00ACAC"/>
<path d="M505.009 210.765L578.091 177.984L578.502 178.896L505.42 211.677L505.009 210.765Z" fill="#00ACAC"/>
<path d="M413.657 251.742L499.528 213.224L499.939 214.135L414.068 252.653L413.657 251.742Z" fill="#00ACAC"/>
<path d="M505.009 210.765L578.091 177.984L578.502 178.896L505.42 211.677L505.009 210.765Z" fill="#005050"/>
<path d="M515.313 238.099L592.07 215.152L592.357 216.109L515.601 239.056L515.313 238.099Z" fill="#00ACAC"/>
<path d="M419.368 266.784L509.557 239.82L509.844 240.777L419.656 267.741L419.368 266.784Z" fill="#00ACAC"/>
<path d="M515.313 238.099L592.07 215.152L592.357 216.109L515.601 239.056L515.313 238.099Z" fill="#005050"/>
<path d="M519.239 252.851L597.386 235.186L597.608 236.16L519.46 253.826L519.239 252.851Z" fill="#00ACAC"/>
<path d="M421.554 274.933L513.378 254.176L513.599 255.151L421.775 275.908L421.554 274.933Z" fill="#00ACAC"/>
<path d="M519.239 252.851L597.386 235.186L597.608 236.16L519.46 253.826L519.239 252.851Z" fill="#005050"/>
</svg>

<svg width="605" height="605" fill="none" xmlns="http://www.w3.org/2000/svg"><path d="M524.872 302.204H605v1h-80.128v-1zM424.711 302.204h94.151v1h-94.151v-1zM523.122 330.649l79.482 10.137-.127.992-79.482-10.138.127-.991zM423.77 317.976l93.391 11.912-.127.991-93.391-11.912.127-.991z" fill="#00ACAC"/><path d="M423.77 317.976l93.391 11.912-.127.991-93.391-11.912.127-.991z" fill="#005050"/><path d="M517.649 359.032l77.496 20.323-.254.966-77.496-20.323.254-.966zM420.78 333.628l91.057 23.879-.254.967-91.058-23.88.255-.966zM513.576 372.776l76.027 25.25-.316.948-76.027-25.25.316-.948zM418.543 341.214l89.331 29.668-.316.948-89.331-29.668.316-.948z" fill="#00ACAC"/><path d="M513.576 372.776l76.027 25.25-.316.948-76.027-25.25.316-.948z" fill="#005050"/><path d="M495.728 412.804l69.583 39.642-.496.868-69.583-39.642.496-.868zM408.75 363.253l81.76 46.578-.497.868-81.76-46.579.497-.867z" fill="#00ACAC"/><path d="M495.728 412.804l69.583 39.642-.496.868-69.583-39.642.496-.868z" fill="#005050"/><path d="M479.571 437.251l63.75 48.43-.606.795-63.751-48.43.607-.795zM399.883 376.714l74.907 56.905-.607.795-74.907-56.905.607-.795zM470.707 448.182l60.625 52.272-.655.756-60.624-52.272.654-.756zM394.926 382.842l71.235 61.42-.655.756-71.234-61.42.654-.756zM460.811 458.905l57.07 56.115-.704.712-57.069-56.115.703-.712zM389.474 388.761l67.057 65.935-.703.712-67.057-65.935.703-.712z" fill="#00ACAC"/><path d="M460.811 458.905l57.07 56.115-.704.712-57.069-56.115.703-.712z" fill="#005050"/><path d="M450.244 468.954l53.271 59.717-.748.664-53.271-59.716.748-.665zM383.655 394.309l62.594 70.167-.749.664-62.593-70.167.748-.664zM439.041 478.298l49.237 63.068-.79.614-49.238-63.068.791-.614zM377.494 399.463l57.854 74.105-.79.614-57.855-74.105.791-.614z" fill="#00ACAC"/><path d="M377.494 399.463l57.854 74.105-.79.614-57.855-74.105.791-.614z" fill="#005050"/><path d="M415.243 494.513l40.755 68.828-.863.509-40.755-68.829.863-.508zM364.299 408.477l47.887 80.874-.862.508-47.888-80.874.863-.508z" fill="#00ACAC"/><path d="M415.243 494.513l40.755 68.828-.863.509-40.755-68.829.863-.508z" fill="#005050"/><path d="M375.595 512.962l26.452 75.46-.946.33-26.451-75.46.945-.33zM342.531 418.637l31.081 88.666-.946.33-31.08-88.666.945-.33z" fill="#00ACAC"/><path d="M375.595 512.962l26.452 75.46-.946.33-26.451-75.46.945-.33z" fill="#005050"/><path d="M361.827 517.295l21.544 76.997-.965.269-21.544-76.998.965-.268zM334.896 421.048l25.315 90.472-.965.269-25.315-90.473.965-.268z" fill="#00ACAC"/><path d="M361.827 517.295l21.544 76.997-.965.269-21.544-76.998.965-.268z" fill="#005050"/><path d="M318.975 524.864l6.175 79.704-.999.077-6.175-79.704.999-.077zM311.255 425.235l7.256 93.651-.998.077-7.256-93.651.998-.077z" fill="#00ACAC"/><path d="M311.255 425.235l7.256 93.651-.998.077-7.256-93.651.998-.077z" fill="#005050"/><path d="M288.962 525.192L284.327 605l-1-.058 4.635-79.807 1 .057zM294.756 425.433l-5.446 93.774-1-.058 5.446-93.774 1 .058z" fill="#00ACAC"/><path d="M294.756 425.433l-5.446 93.774-1-.058 5.446-93.774 1 .058z" fill="#005050"/><path d="M274.839 523.957l-9.551 79.372-.994-.119 9.55-79.372.995.119zM286.777 424.743l-11.222 93.261-.994-.119 11.222-93.261.994.119zM260.471 521.768l-14.712 78.582-.984-.183 14.711-78.582.985.183zM278.861 423.54l-17.287 92.334-.984-.183 17.286-92.335.985.184z" fill="#00ACAC"/><path d="M260.471 521.768l-14.712 78.582-.984-.183 14.711-78.582.985.183z" fill="#005050"/><path d="M192.377 497.153l-39.22 69.711-.873-.489 39.22-69.711.873.489zM241.402 410.015l-46.083 81.91-.874-.489 46.084-81.91.873.489z" fill="#00ACAC"/><path d="M192.377 497.153l-39.22 69.711-.873-.489 39.22-69.711.873.489z" fill="#005050"/><path d="M167.855 481.249l-48.076 63.953-.802-.599 48.077-63.953.801.599zM227.951 401.307l-56.49 75.146-.801-.6 56.49-75.145.801.599z" fill="#00ACAC"/><path d="M167.855 481.249l-48.076 63.953-.802-.599 48.077-63.953.801.599z" fill="#005050"/><path d="M156.456 472.155l-52.174 60.673-.76-.65 52.174-60.673.76.65zM221.673 396.314l-61.304 71.291-.76-.651 61.304-71.29.76.65zM117.758 429.403l-65.983 45.356-.568-.822 65.983-45.356.568.822zM200.237 372.708l-77.53 53.294-.569-.823 77.531-53.293.568.822z" fill="#00ACAC"/><path d="M117.758 429.403l-65.983 45.356-.568-.822 65.983-45.356.568.822z" fill="#005050"/><path d="M110.109 417.593l-68.688 41.166-.516-.857 68.688-41.165.516.856zM195.969 366.137l-80.708 48.369-.516-.857 80.708-48.369.516.857z" fill="#00ACAC"/><path d="M110.109 417.593l-68.688 41.166-.516-.857 68.688-41.165.516.856z" fill="#005050"/><path d="M83.226 350.042L4.881 366.814l-.21-.977 78.345-16.772.21.977zM181.157 329.076l-92.055 19.708-.21-.977 92.055-19.708.21.977z" fill="#00ACAC"/><path d="M83.226 350.042L4.881 366.814l-.21-.977 78.345-16.772.21.977z" fill="#005050"/><path d="M80.619 335.824L1.347 347.482l-.146-.989 79.272-11.658.146.989zM179.708 321.252L86.564 334.95l-.146-.989 93.144-13.698.146.989zM79.592 277.367L0 268.129l.115-.993 79.592 9.238-.115.993zM179.081 288.914l-93.52-10.855.115-.992 93.521 10.854-.116.993zM84.722 248.945l-77.723-19.44.243-.97 77.723 19.441-.243.969zM181.875 273.247l-91.324-22.843.243-.97 91.325 22.843-.244.97zM88.598 235.251l-76.308-24.39.306-.952 76.308 24.39-.306.952zM183.983 265.738L94.321 237.08l.306-.952 89.662 28.659-.306.951zM93.661 221.033l-74.48-29.481.37-.929 74.48 29.482-.37.928zM186.762 257.886l-87.515-34.641.37-.929 87.514 34.641-.369.929zM105.986 194.935l-70.018-38.871.487-.873 70.018 38.871-.487.873zM193.509 243.524l-82.271-45.674.487-.873 82.271 45.674-.487.873z" fill="#00ACAC"/><path d="M193.509 243.524l-82.271-45.674.487-.873 82.271 45.674-.487.873z" fill="#005050"/><path d="M113.604 182.214l-67.287-43.407.544-.839 67.287 43.407-.544.839zM197.712 236.474L118.65 185.47l.544-.839 79.062 51.004-.544.839z" fill="#00ACAC"/><path d="M197.712 236.474L118.65 185.47l.544-.839 79.062 51.004-.544.839z" fill="#005050"/><path d="M150.845 138.199l-53.92-59.133.74-.672 53.921 59.133-.741.672zM218.246 212.116l-63.357-69.482.741-.672 63.357 69.482-.741.672z" fill="#00ACAC"/><path d="M218.246 212.116l-63.357-69.482.741-.672 63.357 69.482-.741.672z" fill="#005050"/><path d="M161.141 129.365L110.987 67.02l.781-.626 50.154 62.346-.781.625zM223.833 207.297l-58.931-73.256.781-.625 58.931 73.256-.781.625zM210.813 99.032l-32.312-73.154.917-.402 32.312 73.153-.917.403zM251.203 190.474l-37.967-85.956.917-.403 37.967 85.956-.917.403zM224.905 93.348l-27.303-75.157.942-.34 27.303 75.157-.942.34zM259.033 187.295l-32.08-88.31.941-.34 32.081 88.31-.942.34z" fill="#00ACAC"/><path d="M224.905 93.348l-27.303-75.157.942-.34 27.303 75.157-.942.34z" fill="#005050"/><path d="M252.072 85.366L234.664 7.334l.977-.217 17.409 78.032-.978.217zM273.834 182.905l-20.456-91.687.978-.217 20.455 91.687-.977.217z" fill="#00ACAC"/><path d="M273.834 182.905l-20.456-91.687.978-.217 20.455 91.687-.977.217z" fill="#005050"/><path d="M266.245 82.642L253.952 3.647l.99-.153 12.293 78.995-.99.153zM281.611 181.386l-14.444-92.82.99-.152 14.444 92.819-.99.153zM295.615 79.943L293.761.023 294.762 0l1.854 79.92-1.001.023zM297.933 179.843l-2.179-93.906 1.001-.023 2.179 93.906-1.001.023zM310.147 80.03L313.545.16l1 .043-3.398 79.87-1-.043zM305.899 179.866l3.993-93.846 1 .042-3.992 93.847-1.001-.043z" fill="#00ACAC"/><path d="M310.147 80.03L313.545.16l1 .043-3.398 79.87-1-.043z" fill="#005050"/><path d="M324.911 81.081l8.632-79.476.996.108-8.632 79.476-.996-.108zM314.12 180.427l10.143-93.385.996.108-10.143 93.384-.996-.107z" fill="#00ACAC"/><path d="M324.911 81.081l8.632-79.476.996.108-8.632 79.476-.996-.108z" fill="#005050"/><path d="M339.358 83.067l13.807-78.745.986.172-13.806 78.745-.987-.172zM322.099 181.499l16.223-92.526.987.172-16.223 92.527-.987-.173zM407.921 106.751l38.444-70.14.878.48-38.444 70.139-.878-.479zM359.866 194.425l45.171-82.414.879.48-45.172 82.414-.878-.48z" fill="#00ACAC"/><path d="M407.921 106.751l38.444-70.14.878.48-38.444 70.139-.878-.479z" fill="#005050"/><path d="M420.793 114.283l43.015-67.446.845.536-43.015 67.447-.845-.537zM367.025 198.591l50.542-79.249.845.536-50.542 79.25-.845-.537z" fill="#00ACAC"/><path d="M420.793 114.283l43.015-67.446.845.536-43.015 67.447-.845-.537z" fill="#005050"/><path d="M454.859 140.681l55.201-57.947.726.689-55.201 57.946-.726-.688zM385.859 213.114l64.86-68.087.726.688-64.86 68.087-.726-.688zM491.431 185.386l68.229-41.919.525.851-68.228 41.918-.526-.85zM406.145 237.784l80.169-49.255.525.851-80.168 49.255-.526-.851zM498.852 198.27l70.865-37.313.467.884-70.864 37.313-.468-.884zM410.272 244.912l83.265-43.843.468.883-83.266 43.843-.467-.883zM505.009 210.765l73.082-32.781.411.912-73.082 32.781-.411-.912zM413.657 251.742l85.871-38.518.411.911-85.871 38.518-.411-.911z" fill="#00ACAC"/><path d="M505.009 210.765l73.082-32.781.411.912-73.082 32.781-.411-.912z" fill="#005050"/><path d="M515.313 238.099l76.757-22.947.287.957-76.756 22.947-.288-.957zM419.368 266.784l90.189-26.964.287.957-90.188 26.964-.288-.957z" fill="#00ACAC"/><path d="M515.313 238.099l76.757-22.947.287.957-76.756 22.947-.288-.957z" fill="#005050"/><path d="M519.239 252.851l78.147-17.665.222.974-78.148 17.666-.221-.975zM421.554 274.933l91.824-20.757.221.975-91.824 20.757-.221-.975z" fill="#00ACAC"/><path d="M519.239 252.851l78.147-17.665.222.974-78.148 17.666-.221-.975z" fill="#005050"/></svg>
